assets/img/braze_icons/chevron-right-double.svg

<svg fill="none" height="24" viewBox="0 0 24 24" width="24" xmlns="http://www.w3.org/2000/svg"><g clip-rule="evenodd" fill="#801ed7" fill-rule="evenodd"><path d="m5.29289 6.29289c.39053-.39052 1.02369-.39052 1.41422 0l4.99999 5.00001c.3905.3905.3905 1.0237 0 1.4142l-4.99999 5c-.39053.3905-1.02369.3905-1.41422 0-.39052-.3905-.39052-1.0237 0-1.4142l4.2929-4.2929-4.2929-4.29289c-.39052-.39053-.39052-1.02369 0-1.41422z"/><path d="m12.2929 6.29289c.3905-.39052 1.0237-.39052 1.4142 0l5 5.00001c.3905.3905.3905 1.0237 0 1.4142l-5 5c-.3905.3905-1.0237.3905-1.4142 0s-.3905-1.0237 0-1.4142l4.2929-4.2929-4.2929-4.29289c-.3905-.39053-.3905-1.02369 0-1.41422z"/></g></svg>

<svg width="24" height="24" viewBox="0 0 24 24" fill="none" xmlns="http://www.w3.org/2000/svg">
<path fill-rule="evenodd" clip-rule="evenodd" d="M5.29289 6.29289C5.68342 5.90237 6.31658 5.90237 6.70711 6.29289L11.7071 11.2929C12.0976 11.6834 12.0976 12.3166 11.7071 12.7071L6.70711 17.7071C6.31658 18.0976 5.68342 18.0976 5.29289 17.7071C4.90237 17.3166 4.90237 16.6834 5.29289 16.2929L9.58579 12L5.29289 7.70711C4.90237 7.31658 4.90237 6.68342 5.29289 6.29289Z" fill="#801ED7"/>
<path fill-rule="evenodd" clip-rule="evenodd" d="M12.2929 6.29289C12.6834 5.90237 13.3166 5.90237 13.7071 6.29289L18.7071 11.2929C19.0976 11.6834 19.0976 12.3166 18.7071 12.7071L13.7071 17.7071C13.3166 18.0976 12.6834 18.0976 12.2929 17.7071C11.9024 17.3166 11.9024 16.6834 12.2929 16.2929L16.5858 12L12.2929 7.70711C11.9024 7.31658 11.9024 6.68342 12.2929 6.29289Z" fill="#801ED7"/>
</svg>
